packages/web-icons/svgs/facebook_1.svg

<svg viewBox="0 0 49 49" xmlns="http://www.w3.org/2000/svg" class="ridi_icon"><path d="M46.6.2H2c-1.1 0-2 .9-2 2v44.1c0 1.1.9 1.9 1.9 1.9h44.6c1.1 0 1.9-.9 1.9-1.9V2.1C48.5 1 47.7.2 46.6.2zm-4.7 13.1s-3.1.1-5 .1-1.8 1.8-1.8 1.8v5.5h6.5v6.6h-6.5v18h-7.5v-18h-5.3v-6.6h5.3v-8.3c0-5.1 5.6-5.3 5.6-5.3h8.7v6.2z"/></svg>

<?xml version="1.0" encoding="UTF-8"?>
<svg width="49px" height="49px" viewBox="0 0 49 49" version="1.1" xmlns="http://www.w3.org/2000/svg">
  <!-- Generator: Sketch 41.2 (35397) - http://www.bohemiancoding.com/sketch -->
  <title>facebook_1</title>
  <desc>Created with Sketch.</desc>
  <defs></defs>
  <g id="Page-1" stroke="none" stroke-width="1" fill="none" fill-rule="evenodd">
    <g id="facebook_1" fill="#000000">
      <g id="레이어_1">
        <path d="M46.6,0.2 L2,0.2 C0.9,0.2 0,1.1 0,2.2 L0,46.3 C0,47.4 0.9,48.2 1.9,48.2 L46.5,48.2 C47.6,48.2 48.4,47.3 48.4,46.3 L48.4,2.1 C48.5,1 47.7,0.2 46.6,0.2 Z M41.9,13.3 C41.9,13.3 38.8,13.4 36.9,13.4 C35,13.4 35.1,15.2 35.1,15.2 L35.1,20.7 L41.6,20.7 L41.6,27.3 L35.1,27.3 L35.1,45.3 L27.6,45.3 L27.6,27.3 L22.3,27.3 L22.3,20.7 L27.6,20.7 L27.6,12.4 C27.6,7.3 33.2,7.1 33.2,7.1 L41.9,7.1 L41.9,13.3 L41.9,13.3 Z" id="Shape"></path>
      </g>
    </g>
  </g>
</svg>
